X:1
T:Oh, Wonderful Word!
T:Ira David Sankey
T:Oh, Wonderful Word!
T:Public Domain
T:Public Domain
T:Public Domain
C:Ira David Sankey
Z:Public Domain
%%score ( 1 2 ) ( 3 4 )
L:1/8
M:6/4
K:G
V:1 treble 
V:2 treble 
V:3 bass 
V:4 bass 
V:1
 [Gd]2 | [Gd]3 [Dc] [DB]2 [GB]2 [Ac]2 [Bd]2 | [Ac]3 [GB] [FA]2 [FA]4 [Ac]2 | %3
w: 1.~Oh,|won- der- ful, won- der- ful|Word of the Lord! True|
w: 2.~Oh,|won- der- ful, won- der- ful|Word of the Lord! The|
w: 3.~Oh,|won- der- ful, won- der- ful|Word of the Lord! Our|
w: 4.~Oh,|won- der- ful, won- der- ful|Word of the Lord! The|
 [GB]3 [GA] G2 [Ad]2 [Ac]2 [GB]2 | [F-A]6 [Fd]4 [Fd]2 | [Gd]3 [Dc] [DB]2 [GB]2 [Ac]2 [Bd]2 | %6
w: wis- dom its pag- es un-|And * though|we may read them a thou-|
w: lamp that our Fa- ther a-|So * kind-|ly has light- ed to teach|
w: on- ly sal- va- tion is|It * car-|ries con- vict- ion down deep|
w: hope of our friends in the|Its * truth,|where so firm- ly they an-|
 [Ac]3 [GB] [FA]2 ([FA]2 [GB]2) [Ac]2 | [GB]3 [FA] G2 [EA]2 [DG]2 [DF]2 | [DG]6- [DG]4 [GB]2 | %9
w: sand times o’er, They * ne-|ver, no ne- ver, grow old!|Each * line|
w: us the way That * leads|to the arms of His love!|Its * warn-|
w: in the heart, And * shows|us our- selves as we are.|It * tells|
w: chored their trust, Through * ag-|es e- ter- nal shall last.|Oh, * won-|
 [FA]3 [GB] [Ac]2 [Ac]2 [GB]2 [FA]2 | %10
w: hath a trea- sure, each pro-|
w: ings, its coun- sels, are faith-|
w: of a Sav- ior, and points|
w: der- ful, won- der- ful Word|
 [GB]3 [Ac] [Bd]2 [Bd]4 [GB]2 [FA]3 [Fd] [Fd]2 [E^c]2 [Fd]2 [Ge]2 | [Fd]6- [Fd]4 [Fd][Fd] | %12
w: mise a pearl, That all if they will may se- cure;|And * we know|
w: ful and just; Its judg- ments are per- fect and pure;|And * we know|
w: to the cross, Where par- don we now may se- cure;|And * we know|
w: of the Lord! Un- chang- ing, a- bid- ing and sure;|For * we know|
 [Gd]3 [Dc] [DB]2 [GB]2 [Ac]2 [Bd]2 | [Ac]3 [GB] [FA]2 ([FA]2 [GB]2) [Ac]2 | %14
w: that when time and the world|pass a- way, God’s * Word|
w: that when time and the world|pass a- way, God’s * Word|
w: that when time and the world|pass a- way, God’s * Word|
w: that when time and the world|pass a- way, God’s * Word|
 [GB]3 [FA] G2 [EA]2 [DG]2 [DF]2 | [DG]2- [DG]8 |] %16
w: shall for- e- ver en- dure.||
w: shall for- e- ver en- dure.||
w: shall for- e- ver en- dure.||
w: shall for- e- ver en- dure.||
V:2
 x2 | x12 | x12 | x4 G2 x6 | x12 | x12 | x12 | x12 | x12 | x12 | x24 | x12 | x12 | x12 | x4 G2 x6 | %15
w: |||fold;||||||||||||
w: |||bove||||||||||||
w: |||there;||||||||||||
w: |||past;||||||||||||
 x10 |] %16
w: |
w: |
w: |
w: |
V:3
 [G,B,]2 | [G,B,]3 [F,A,] G,2 [G,D]2 [G,D]2 [G,D]2 | [D,D]3 [D,D] [D,D]2 [D,D]4 [D,D]2 | %3
 [G,D]3 [G,C] [G,B,]2 [F,D]2 [F,D]2 [G,D]2 | [D,-D]6 [D,A,]4 [D,C]2 | %5
 [G,B,]3 [G,A,] G,2 [G,D]2 [G,D]2 [G,D]2 | [D,D]3 [D,D] [D,D]2 [D,D]4 [D,D]2 | %7
 [G,,D]3 [A,,D] [B,,D]2 [C,C]2 [D,B,]2 [D,A,]2 | [G,,B,]6- [G,,B,]4 [G,D]2 | %9
 [D,D]3 [D,D] [D,D]2 [D,D]2 [D,D]2 [D,D]2 | %10
 [G,D]3 [G,D] [G,D]2 [G,D]4 [G,D]2 [A,D]3 A, A,2 [A,,A,]2 [A,,A,]2 [A,,A,]2 | %11
 [D,A,]6- [D,A,]4 [D,C][D,C] | [G,B,]3 [G,A,] G,2 [G,D]2 [G,D]2 [G,D]2 | %13
 [D,D]3 [D,D] [D,D]2 [D,D]4 [D,D]2 | [G,,D]3 [A,,D] [B,,D]2 [C,C]2 [D,B,]2 [D,A,]2 | %15
 [G,,B,]2- [G,,B,]8 |] %16
V:4
 x2 | x4 G,2 x6 | x12 | x12 | x12 | x4 G,2 x6 | x12 | x12 | x12 | x12 | x24 | x12 | x12 | x12 | %14
 x12 | x10 |] %16

